image/icon/Sneg.svg

<svg version="1.1" xmlns="http://www.w3.org/2000/svg" xmlns:xlink="http://www.w3.org/1999/xlink" width="50px" height="50px" viewBox="0,0,256,256"><g transform="translate(15.36,15.36) scale(0.88,0.88)"><g fill="none" fill-rule="nonzero" stroke="none" stroke-width="none" stroke-linecap="butt" stroke-linejoin="none" stroke-miterlimit="10" stroke-dasharray="" stroke-dashoffset="0" font-family="none" font-weight="none" font-size="none" text-anchor="none" style="mix-blend-mode: normal"><path transform="scale(5.12,5.12)" d="M24,9.78125c0,9.26953 -3.27734,11.21875 -6.03125,11.21875c-4.25391,0 -6.96875,-6.58594 -6.96875,-10.03125c0,-4.34766 2.50391,-8.96875 7.15625,-8.96875c3.05469,0 5.84375,3.70703 5.84375,7.78125zM40,10.5625c0,5.53906 -2.71875,11.4375 -7.75,11.4375c-5.10156,0 -6.25,-8.33203 -6.25,-11.25c0,-3.67187 2.6875,-8.75 7.75,-8.75c2.61719,0 6.25,2.96875 6.25,8.5625zM13,25.6875c0,5.0625 -2.40234,10.3125 -6.4375,10.3125c-4,0 -6.5625,-4.9375 -6.5625,-8.34375c0,-4.77734 3.38281,-9.65625 6.71875,-9.65625c3.16406,0 6.28125,3.80078 6.28125,7.6875zM46.21875,18.125c1.13672,0.26953 2.09375,1.08203 2.78125,2.375c1.16016,2.17969 1.33203,5.3125 0.40625,7.78125c-1.79687,4.76563 -4.87109,7.71875 -8,7.71875c-0.38672,0 -0.77734,-0.03516 -1.15625,-0.125c-1.67578,-0.39062 -2.98437,-1.48047 -3.6875,-3.03125c-1.00391,-2.21484 -0.67969,-5.10156 0.9375,-8.125c2.32031,-4.34375 4.98828,-6.66406 7.59375,-6.71875c0.37109,-0.00781 0.75781,0.03906 1.125,0.125zM31.34375,32.40625c0.64063,0.96484 1.32813,1.94141 2.09375,2.875c0.92578,1.125 2.42188,1.79297 3.875,2.4375c2.19922,0.97266 4.6875,2.06641 4.6875,4.96875c0,3.79688 -2.38672,5.75 -7.09375,5.75c-1.78516,0 -3.47266,-0.34766 -5.09375,-0.65625c-1.66016,-0.31641 -3.36328,-0.625 -5.25,-0.625c-1.73047,0 -3.08984,0.40625 -4.53125,0.84375c-1.625,0.49219 -3.30469,1 -5.625,1c-4.20312,0 -6.40625,-2.9375 -6.40625,-5.84375c0,-3.21484 1.76172,-4.62891 3.8125,-6.25c0.86328,-0.68359 1.87109,-1.45703 2.84375,-2.46875c0.80859,-0.83594 1.51953,-1.69531 2.21875,-2.53125c2.125,-2.52734 4.14453,-4.90625 7.34375,-4.90625c3.55859,0 5.27734,2.62891 7.125,5.40625z" id="strokeMainSVG" fill="#000000" stroke="#000000" stroke-width="7" stroke-linejoin="round"></path><g transform="scale(5.12,5.12)" fill="#ffffff" stroke="none" stroke-width="1" stroke-linejoin="miter"><path d="M18.15625,2c-4.65234,0 -7.15625,4.62109 -7.15625,8.96875c0,3.44531 2.71484,10.03125 6.96875,10.03125c2.75391,0 6.03125,-1.94922 6.03125,-11.21875c0,-4.07422 -2.78906,-7.78125 -5.84375,-7.78125zM33.75,2c-5.0625,0 -7.75,5.07813 -7.75,8.75c0,2.91797 1.14844,11.25 6.25,11.25c5.03125,0 7.75,-5.89844 7.75,-11.4375c0,-5.59375 -3.63281,-8.5625 -6.25,-8.5625zM6.71875,18c-3.33594,0 -6.71875,4.87891 -6.71875,9.65625c0,3.40625 2.5625,8.34375 6.5625,8.34375c4.03516,0 6.4375,-5.25 6.4375,-10.3125c0,-3.88672 -3.11719,-7.6875 -6.28125,-7.6875zM45.09375,18c-2.60547,0.05469 -5.27344,2.375 -7.59375,6.71875c-1.61719,3.02344 -1.94141,5.91016 -0.9375,8.125c0.70313,1.55078 2.01172,2.64063 3.6875,3.03125c0.37891,0.08984 0.76953,0.125 1.15625,0.125c3.12891,0 6.20313,-2.95312 8,-7.71875c0.92578,-2.46875 0.75391,-5.60156 -0.40625,-7.78125c-0.6875,-1.29297 -1.64453,-2.10547 -2.78125,-2.375c-0.36719,-0.08594 -0.75391,-0.13281 -1.125,-0.125zM24.21875,27c-3.19922,0 -5.21875,2.37891 -7.34375,4.90625c-0.69922,0.83594 -1.41016,1.69531 -2.21875,2.53125c-0.97266,1.01172 -1.98047,1.78516 -2.84375,2.46875c-2.05078,1.62109 -3.8125,3.03516 -3.8125,6.25c0,2.90625 2.20313,5.84375 6.40625,5.84375c2.32031,0 4,-0.50781 5.625,-1c1.44141,-0.4375 2.80078,-0.84375 4.53125,-0.84375c1.88672,0 3.58984,0.30859 5.25,0.625c1.62109,0.30859 3.30859,0.65625 5.09375,0.65625c4.70703,0 7.09375,-1.95312 7.09375,-5.75c0,-2.90234 -2.48828,-3.99609 -4.6875,-4.96875c-1.45312,-0.64453 -2.94922,-1.3125 -3.875,-2.4375c-0.76562,-0.93359 -1.45312,-1.91016 -2.09375,-2.875c-1.84766,-2.77734 -3.56641,-5.40625 -7.125,-5.40625z"></path></g></g></g></svg>

<svg version="1.1" xmlns="http://www.w3.org/2000/svg" width="50" height="50" viewBox="0 0 256 256"><g fill="none" fill-rule="nonzero" stroke="none" stroke-width="none" stroke-linecap="butt" stroke-linejoin="none" stroke-miterlimit="10" stroke-dashoffset="0" font-family="none" font-weight="none" font-size="none" text-anchor="none" style="" transform="translate(15.36,15.36) scale(0.88,0.88)"><path transform="scale(5.12,5.12)" d="M24 9.781c0 9.27-3.277 11.22-6.031 11.22-4.255 0-6.97-6.586-6.97-10.031 0-4.349 2.504-8.97 7.156-8.97C21.211 2 24 5.707 24 9.78zm16 .783C40 16.101 37.28 22 32.25 22 27.148 22 26 13.668 26 10.75 26 7.078 28.688 2 33.75 2 36.367 2 40 4.97 40 10.562zM13 25.688C13 30.75 10.598 36 6.562 36 2.562 36 0 31.062 0 27.656 0 22.88 3.383 18 6.72 18c3.163 0 6.28 3.8 6.28 7.688zm33.219-7.563c1.135.27 2.092 1.082 2.78 2.375 1.16 2.18 1.332 5.312.406 7.781-1.797 4.767-4.87 7.72-8 7.72-.386 0-.777-.035-1.156-.125-1.676-.39-2.984-1.48-3.688-3.031-1.003-2.215-.68-5.102.938-8.125 2.32-4.345 4.988-6.665 7.594-6.72a4.58 4.58 0 011.125.125zM31.343 32.406c.64.965 1.328 1.942 2.094 2.875.925 1.126 2.421 1.794 3.875 2.439C39.512 38.69 42 39.784 42 42.686c0 3.797-2.387 5.75-7.094 5.75-1.785 0-3.472-.347-5.093-.656-1.66-.315-3.364-.624-5.25-.624-1.73 0-3.09.407-4.532.844-1.624.492-3.303 1-5.624 1C10.203 49 8 46.062 8 43.156c0-3.215 1.762-4.629 3.812-6.25.864-.683 1.872-1.457 2.844-2.468.809-.836 1.52-1.696 2.22-2.532C19 29.38 21.02 27 24.218 27c3.557 0 5.276 2.629 7.124 5.406z" id="strokeMainSVG" fill="#000000" stroke="#000000" stroke-width="7" stroke-linejoin="round"/><path d="M18.156 2C13.504 2 11 6.62 11 10.97c0 3.444 2.715 10.03 6.969 10.03 2.753 0 6.03-1.95 6.03-11.219 0-4.073-2.79-7.78-5.844-7.78zM33.75 2C28.688 2 26 7.078 26 10.75 26 13.668 27.148 22 32.25 22 37.28 22 40 16.102 40 10.562 40 4.97 36.367 2 33.75 2zM6.72 18c-3.337 0-6.72 4.879-6.72 9.656C0 31.062 2.562 36 6.562 36 10.598 36 13 30.75 13 25.688 13 21.8 9.883 18 6.72 18zm38.374 0c-2.606.055-5.274 2.375-7.594 6.719-1.617 3.022-1.941 5.909-.938 8.124.704 1.55 2.012 2.64 3.688 3.03.379.09.77.126 1.156.126 3.13 0 6.203-2.953 8-7.719.926-2.468.754-5.6-.406-7.78-.688-1.293-1.645-2.105-2.781-2.375A4.58 4.58 0 0045.093 18zm-20.875 9c-3.2 0-5.22 2.379-7.345 4.906-.7.836-1.41 1.696-2.219 2.531-.972 1.012-1.98 1.786-2.844 2.47C9.762 38.526 8 39.94 8 43.156 8 46.061 10.203 49 14.406 49c2.32 0 4-.508 5.625-1 1.443-.438 2.802-.844 4.532-.844 1.887 0 3.59.309 5.25.625 1.622.31 3.31.658 5.094.658 4.707 0 7.094-1.954 7.094-5.75 0-2.903-2.488-3.997-4.688-4.97-1.453-.644-2.949-1.312-3.875-2.437a35.323 35.323 0 01-2.093-2.874C29.496 29.63 27.777 27 24.219 27z" transform="scale(5.12,5.12)" fill="#ffffff" stroke="none" stroke-width="1" stroke-linejoin="miter"/></g></svg>
